X:530
T: Der verschmhte Jger (232a), S.500
N: T0418
O: Luxemburg
S: Singendes Volk, Esch-Alzette, 1937 posth.]
N: Esch-Alzette, fff Michel Rauchs, 23.1.1914;
N: (232b)- Straen, fff Witry, 13.12.1932
R: Jagdlied, Liebeslied?]
M: 6/8
L: 1/16
K: G
D2 | B4A2G2F2G2 | A2D4z4
D2 | c4B2A4c2 | B4z6
GA | B2B2B2B4B2 | B4d2d4
d2 | c3cc2A4c2 | B4z6
GA | B2B2B2B4B2 | B4d2d4
d2 | c3cc2A4c2 | B4z6

@@@ Tune index: 8584
